X:3970
T:den Ny Snderhoning
A:Fan
C:e. Grner Nielsen
L:1/8
M:2/4
O:Denmark
Q:1/4=92
R:Snderhoning
Z:Richard Robinson 
%%TUNEURL: http://www.leeds.ac.uk/music/Info/RRTuneBk/gettune/00000b3e.html
%%ID:00000b3e
K:G
GG BB| AA cc| B/c/B/G/ A/B/A/F/| GD D2|\
GG BB| AA cc| B/c/B/G/ A/B/A/F/| Gz [gB]z :|
|:BB [d2D2]| c/B/A/G/ A2| cc [e2c2]| d/c/B/A/ B2|\
GG BB| AA {A}cc| (B/c/).B/.G/ (A/B/).A/.F/| Gz [gB]z :|
